theme/essential/pix_core/t/portfolioadd.svg

<!DOCTYPE svg PUBLIC "-//W3C//DTD SVG 1.1//EN" "http://www.w3.org/Graphics/SVG/1.1/DTD/svg11.dtd" [
	<!ENTITY ns_flows "http://ns.adobe.com/Flows/1.0/">
]><svg xmlns="http://www.w3.org/2000/svg" width="12" height="12" viewBox="0 0 12 12" preserveAspectRatio="xMinYMid meet" overflow="visible"><path d="M5.3 12h-5.3v-9.4l2.6-2.6h7.4v3.8l-1-1v-1.8h-5v3h-3v7h4c0 .4.1.7.3 1zm6.5-5l-3.5-3.6c-.4-.4-1-.4-1.4 0l-3.5 3.7c-.4.4-.3.9.3.9h2.3v3c0 .5.5 1 1.1 1h1c.5 0 .9-.5.9-1v-3h2.5c.5 0 .7-.6.3-1z" fill="#999"/></svg>

<?xml version="1.0" encoding="utf-8"?>
<!-- Generator: Adobe Illustrator 15.1.0, SVG Export Plug-In  -->
<!DOCTYPE svg PUBLIC "-//W3C//DTD SVG 1.1//EN" "http://www.w3.org/Graphics/SVG/1.1/DTD/svg11.dtd" [
	<!ENTITY ns_flows "http://ns.adobe.com/Flows/1.0/">
]>
<svg version="1.1"
	 xmlns="http://www.w3.org/2000/svg" xmlns:xlink="http://www.w3.org/1999/xlink" xmlns:a="http://ns.adobe.com/AdobeSVGViewerExtensions/3.0/"
	 x="0px" y="0px" width="12px" height="12px" viewBox="0 0 12 12" style="overflow:visible;enable-background:new 0 0 12 12;"
	 xml:space="preserve" preserveAspectRatio="xMinYMid meet">
<defs>
</defs>
<path style="fill:#29a1c4;" d="M5.3,12H0V2.6v0L2.6,0h0H10v3.8l-1-1V1H4v3H1v7h4C5,11.4,5.1,11.7,5.3,12z M11.8,7L8.3,3.4
	C7.9,3,7.3,3,6.9,3.4L3.4,7.1C3,7.5,3.1,8,3.7,8H6v3c0,0.5,0.5,1,1.1,1h1C8.6,12,9,11.5,9,11V8h2.5C12,8,12.2,7.4,11.8,7z"/>
</svg>
